src/icons/room-switch.svg

<svg fill="none" height="24" viewBox="0 0 24 24" width="24" xmlns="http://www.w3.org/2000/svg"><path d="m20 3h-16c-1.10457 0-2 .89543-2 2v10c0 1.1046.89543 2 2 2h16c1.1046 0 2-.8954 2-2v-10c0-1.10457-.8954-2-2-2z"/><path d="m8 21h8"/><path d="m12 17v4"/><path d="m10.5 7h4.5m0 0v4.5m0-4.5-6 6"/></svg>

<svg width="24" height="24" viewBox="0 0 24 24" fill="none" class="feather" xmlns="http://www.w3.org/2000/svg">
<path d="M20 3H4C2.89543 3 2 3.89543 2 5V15C2 16.1046 2.89543 17 4 17H20C21.1046 17 22 16.1046 22 15V5C22 3.89543 21.1046 3 20 3Z" />
<path d="M8 21H16" />
<path d="M12 17V21" />
<path d="M10.5 7H15M15 7V11.5M15 7L9 13" />
</svg>
